app/img/ico-clip.svg

<svg width="16" height="16" viewBox="0 0 16 16" fill="none" xmlns="http://www.w3.org/2000/svg">
<g clip-path="url(#clip0)">
<path d="M11.6243 6.18069C11.6243 6.18069 12.2309 5.71942 11.7691 5.25815C11.3074 4.79688 10.8585 5.39213 10.8585 5.39213L6.21656 10.035C6.21656 10.035 5.12938 11.4381 4.30275 10.5897C3.47711 9.74035 4.85697 8.67542 4.85697 8.67542L10.9435 2.58939C10.9435 2.58939 12.3639 1.02463 13.6993 2.35901C15.0326 3.69388 13.4634 5.11725 13.4634 5.11725L6.62444 11.9562C6.62444 11.9562 4.43624 14.4841 2.41069 12.458C0.385148 10.432 2.93772 8.26853 2.93772 8.26853L8.12987 3.07489C8.12987 3.07489 8.71128 2.58939 8.27572 2.15235C7.83818 1.71579 7.35367 2.29819 7.35367 2.29819L1.3957 8.25617C1.3957 8.25617 -0.853316 10.7227 1.65822 13.2338C4.16976 15.7463 6.63778 13.4973 6.63778 13.4973L14.8265 5.30759C14.8265 5.30759 16.4649 3.50057 14.5115 1.54622C12.5582 -0.408134 10.7507 1.2303 10.7507 1.2303L3.70453 8.27545C3.70453 8.27545 1.89998 9.74332 3.53742 11.3798C5.17486 13.0182 6.61603 11.187 6.61603 11.187L11.6243 6.18069Z" fill="white"/>
</g>
<defs>
<clipPath id="clip0">
<rect width="15" height="15" fill="white" transform="translate(0.469727 0.00512695)"/>
</clipPath>
</defs>
</svg>

<svg width="16" height="16" viewBox="0 0 16 16" fill="none" xmlns="http://www.w3.org/2000/svg"><g clip-path="url(#a)"><path d="M11.624 6.18s.607-.46.145-.922c-.462-.461-.91.134-.91.134l-4.642 4.643s-1.088 1.403-1.914.555c-.826-.85.554-1.915.554-1.915l6.087-6.086s1.42-1.564 2.755-.23c1.334 1.335-.236 2.758-.236 2.758l-6.839 6.84s-2.188 2.527-4.213.501c-2.026-2.026.527-4.19.527-4.19L8.13 3.076s.581-.486.146-.923c-.438-.436-.922.146-.922.146L1.396 8.256s-2.25 2.467.262 4.978c2.512 2.512 4.98.263 4.98.263l8.189-8.19s1.638-1.806-.316-3.76c-1.953-1.955-3.76-.317-3.76-.317L3.705 8.275S1.9 9.743 3.537 11.38c1.638 1.638 3.079-.193 3.079-.193l5.008-5.006z" fill="#fff"/></g><defs><clipPath id="a"><path fill="#fff" transform="translate(.47 .005)" d="M0 0h15v15H0z"/></clipPath></defs></svg>
